X: 15854
T: Gosson That Bate His Father, The
R: reel
M: 4/4
K: Amixolydian
|e2BA eAcA|BAGA Bcdf|eA~A2 eAcA|Bded BAag|
eA~A2 eAcA|BAGA Bcdf|efed BAGA|Beed BAGB||
ABAG EDEF|G2BG dGBG|ABAG EDBA|Beed BAAG|
ABAG EDEF|G2BG dGBG|ABAG EDBA|Beed BABd|

